pitchfork.svg

<svg fill="currentColor" viewBox="0 0 24 24"><path d="m15.9.9-2.8 2.8c-.8.8-.8 2 0 2.8L14.5 8l-5.3 5.4L7.8 12c-.8-.8-2-.8-2.8 0l-4 4 1.4 1.4 4-4 1.4 1.4-4 4 1.4 1.4 4-4 1.4 1.4-.7.8-3.2 3.2L8 23l4-4c.8-.8.8-2 0-2.8l-1.4-1.4 5.3-5.4 1.4 1.4c.8.8 2 .8 2.8 0L23 8zm2.8 8.5-4.2-4.2 1.4-1.4L20.1 8z"/></svg>

<svg  viewBox="0 0 24 24" fill="currentColor"><path  d="M15.9 .9L13.1 3.7C12.3 4.5 12.3 5.7 13.1 6.5L14.5 8L9.2 13.4L7.8 12C7 11.2 5.8 11.2 5 12L1 16L2.4 17.4L6.4 13.4L7.8 14.8L3.8 18.8L5.2 20.2L9.2 16.2L10.6 17.6L9.9 18.4L6.7 21.6L8 23L12 19C12.8 18.2 12.8 17 12 16.2L10.6 14.8L15.9 9.4L17.3 10.8C18.1 11.6 19.3 11.6 20.1 10.8L23 8L15.9 .9M18.7 9.4L14.5 5.2L15.9 3.8L20.1 8L18.7 9.4Z"/></svg>
